X:187
T: HAESCHEN IN DER GRUBE
N: K2409B
O: Europa, Mitteleuropa, Deutschland, Hessen, Nauheim
R: Kinder - Lied, Tanz -, Lauf - Spiel
M: 2/4
L: 1/8
K: G
 | dBed | dccd | B2z2 |
ABce | edd2 |
dBed | dcc2 |
ABcd | B2z2

